X:3088
T:Hist, hvor vejen sl\aar en bugt
C:J. C. Gebauer, words: Hans Christian Andersen
O:Denmark
F:http://abc.musicaviva.com/tunes/gebauer-j-c/gebauer-hist-hvor-vejen.abc
M:2/4
L:1/8
Q:1/4=118 
K:G
"G"B>A GA|"G"Bcd2|"G"gd Bd|"D7"cA"G"G2:|
w:Hist, hvor ve-jen sl\aar en bugt, lig-ger der et hus s\aa smukt.
"A7"AA B^c|"D"def2|"A7"ge d^c|"D"dfA2|
w:V\aeg-ge-ne lidt sk\ae-ve st\aa, ru-der-ne er gan-ske sm\aa,
"A7"AA B^c|"D"def2|"A7"ge d^c|"D"dd dz|
w:d\o-ren syn-ker halvt i kn\ae, hun-den g\or, det lil-le kr\ae,
"n.c."z2B>A|"G"GA Bc|"G"dg GA|"G"Bd "D7"cA|"D7"A2"G"G2|]
w:un-der ta-get sva-ler kvid-re, so-len syn-ker og s\aa vid'-re.
W:
W:Hist, hvor vejen sl\aar en bugt,
W:ligger der et hus s\aa smukt.
W:V\aeggene lidt sk\aeve st\aa,
W:ruderne er ganske sm\aa,
W:d\oren synker halvt i kn\ae,
W:hunden g\or, det lille kr\ae,
W:under taget svaler kvidre,
W:solen synker og s\aa vid're.
W:
W:
W:  From Musica Viva - http://www.musicaviva.com
W:  the Internet center for free sheet music downloads.
